Vector/symbolic/devices/scanner-symbolic.svg

<svg xmlns="http://www.w3.org/2000/svg" width="16" height="16"><path d="M3 1s-.99 0-1 1v4H0v2h16V6h-2V2c.01-1-1-1-1-1zm1 2h8v3H4zM2 9v5s0 1 1 1h10c1 0 1-1 1-1V9h-2v4H4V9z" fill="#555555"/></svg>

<svg xmlns="http://www.w3.org/2000/svg" width="16" height="16" version="1.1">
 <path style="fill:#444444" d="M 3,1 C 3,1 2.01,1 2,2 V 6 H 0 V 8 H 16 V 6 H 14 V 2 C 14.01,1 13,1 13,1 Z M 4,3 H 12 V 6 H 4 Z M 2,9 V 14 C 2,14 2,15 3,15 H 13 C 14,15 14,14 14,14 V 9 H 12 V 13 H 4 V 9 Z"/>
</svg>
